X:217
T:Furze Field
M:6/8
K:G
D | G2G FGA | BAG ABc | dBd cAF | G3- G2 D |
G2G FGA | BAG ABc | dBd cAF | G3- G2 ||
B/2c/2 | d2 d ded | cAF DEF | GAB cde | dcB A2 D |
G2G FGA | BAG A>Bc | dBd cAF | G3- G2 ||
